src/svg/uf27a-commenting.svg

<!-- Generated by IcoMoon.io -->
<svg version="1.1" xmlns="http://www.w3.org/2000/svg" width="32" height="32" viewBox="0 0 32 32">
<path d="M11.429 16c0-1.268-1.018-2.286-2.286-2.286s-2.286 1.018-2.286 2.286 1.018 2.286 2.286 2.286 2.286-1.018 2.286-2.286zM18.286 16c0-1.268-1.018-2.286-2.286-2.286s-2.286 1.018-2.286 2.286 1.018 2.286 2.286 2.286 2.286-1.018 2.286-2.286zM25.143 16c0-1.268-1.018-2.286-2.286-2.286s-2.286 1.018-2.286 2.286 1.018 2.286 2.286 2.286 2.286-1.018 2.286-2.286zM32 16c0 6.321-7.161 11.429-16 11.429-1.304 0-2.571-0.107-3.768-0.321-2.036 2.036-4.696 3.429-7.768 4.089-0.482 0.089-1 0.179-1.536 0.232-0.286 0.036-0.554-0.161-0.625-0.429v0c-0.071-0.286 0.143-0.464 0.357-0.661 1.125-1.054 2.464-1.893 2.929-5.661-3.411-2.089-5.589-5.196-5.589-8.679 0-6.321 7.161-11.429 16-11.429s16 5.107 16 11.429z"></path>
</svg>

<svg xmlns="http://www.w3.org/2000/svg" width="32" height="32"><path d="M11.429 16c0-1.268-1.018-2.286-2.286-2.286S6.857 14.732 6.857 16s1.018 2.286 2.286 2.286 2.286-1.018 2.286-2.286zm6.857 0c0-1.268-1.018-2.286-2.286-2.286S13.714 14.732 13.714 16s1.018 2.286 2.286 2.286 2.286-1.018 2.286-2.286zm6.857 0c0-1.268-1.018-2.286-2.286-2.286S20.571 14.732 20.571 16s1.018 2.286 2.286 2.286 2.286-1.018 2.286-2.286zM32 16c0 6.321-7.161 11.429-16 11.429-1.304 0-2.571-.107-3.768-.321-2.036 2.036-4.696 3.429-7.768 4.089-.482.089-1 .179-1.536.232A.584.584 0 0 1 2.303 31c-.071-.286.143-.464.357-.661 1.125-1.054 2.464-1.893 2.929-5.661C2.178 22.589 0 19.482 0 15.999 0 9.678 7.161 4.57 16 4.57s16 5.107 16 11.429z"/></svg>
